!!!OTL: O matko milosciwa
**kern
*staff1
=--
*clefC1
*k[]
*met(c|)
*M2/2
1d
1a
=-
1a
2g
2f
=-
1e
1d
=-
1a
1cc
=-
2b
1a
2cc
1a
=-
!!linebreak:original
1f
2e
1g
2f
=-
1e
1d
=-
2dd
1dd
2a
=-
1a
2a
1g
2f
=-
1e
0d
=-=
*-
!!title: @{OTL}, @{GTL}, ed. @{ENC}
!!!pag:
!!!GTL: Hymnbook C
!!!EFL: 
!!!YEM: Creative Commons CC/BY/NC/SA 4.0
!!!ENC: Marcin Konik
!!!END: 2015-0m-dd
!!!EED: Marcin Konik
!!!EEV: 
!!!ONB: Encoded in vim by Marcin Konik
!!!CharacterEncoding: utf-8
!!!RDF**kern: l=long note in original notation
!!!RDF**kern: i=editorial accidental
!!muse2ps: z14jc180F
!!!COM: Anonim
!!!CDT: [?]
!!!TXO: Polish
!!!ODT: 
!!!GTL: Hymnbook C
!!!ARL: Opactwo św. Wojciecha, Staniątki 
!!!voices:	1
